src/components/icon3.svg

<svg
    xmlns="http://www.w3.org/2000/svg"
    xml:space="preserve"
    version="1.1"
    style="shape-rendering:geometricPrecision; text-rendering:geometricPrecision; image-rendering:optimizeQuality; fill-rule:evenodd; clip-rule:evenodd"
    viewBox="0 0 25.29 76.92"
    xmlns:xlink="http://www.w3.org/1999/xlink"
>
<defs></defs>
<g id="Layer_x0020_1">
  <metadata id="CorelCorpID_0Corel-Layer"></metadata>
  <path
    class="fil0"
    d="M19.14 6.58c0.09,0.1 -0.02,0.03 0.17,0.15 0.04,0.03 0.19,0.09 0.27,0.13l0.16 0.02c0.12,0.14 0.02,0.06 0.22,0.18 0.63,0.37 1.81,0.52 2.51,0.53 0.42,-0.26 0.61,-1.58 0.55,-2.27 -0.11,-1.17 -1.02,-3.42 -2.17,-3.76 -0.84,-0.25 -1.19,0.02 -1.4,0.7 -0.03,0.1 -0.05,0.19 -0.09,0.28l-0.18 0.25c-0.18,-0.36 -0.77,-0.97 -1.2,-1.18 -0.64,-0.31 -0.36,-0.26 -0.84,-1.59l-0.75 0c0.2,0.63 0.44,1.27 0.61,1.92 0.17,0.64 0.47,1.46 0.58,2.05 -0.21,0.36 -0.43,0.5 -0.31,1.1 0.11,0.51 0.35,0.71 0.76,0.9 0.13,0.31 0.36,1.33 0.39,1.78 -0.68,0.24 -1.38,0.85 -1.62,1.43 -0.45,-0.47 -0.29,-1.59 -1.59,-1.22 -0.8,0.22 -1.09,0.8 -1.45,1.52 -0.58,1.18 -0.96,2.15 -0.6,3.58 0.04,0.17 0.13,0.4 0.19,0.55 0.11,0.29 0.09,0.34 0.35,0.44 1.74,-0.01 2.96,-0.82 4.13,-1.55 0.22,-0.13 0.65,-0.39 0.79,-0.62 0.74,-1.2 -0.74,-2.14 -1.7,-2.43 -0.01,-0.51 1.07,-0.87 1.7,-0.82 0.21,1.74 0.56,3.5 0.61,5.33 0.05,2.05 0.01,3.68 -0.08,5.71 -1.2,0.52 -0.99,0.65 -1.77,1.46 -0.39,-0.45 -0.22,-1.6 -1.59,-1.18 -0.79,0.24 -0.91,0.63 -1.42,1.55 -0.78,1.41 -0.95,2.66 -0.36,4.15 0.14,0.35 0.06,0.36 0.36,0.37 0.78,-0 1.47,-0.18 2.09,-0.43 0.51,-0.2 1.26,-0.76 1.69,-0.86 -0.18,0.3 -0.34,0.91 -0.48,1.25l-1.54 3.5c-1.75,0.08 -1.26,0.29 -2.27,0.59 0.1,-1.15 0.1,-1.69 -1.1,-1.78 -0.7,-0.05 -1.5,0.65 -1.91,0.96 -1.04,0.82 -1.93,1.81 -1.94,3.77 0.09,0.22 -0.03,0.09 0.18,0.11 0.24,0.36 1.4,0.49 1.94,0.58l0.19 -0.01 0.71 -0.01 0.08 -0.02 1.74 -0.17c0.25,0.04 0.03,-0.07 0.19,0.09l-2.62 4.74c-0.28,0.51 -0.56,1.2 -0.86,1.61 -0.44,-0.02 -0.69,-0.14 -1.18,-0.08 -0.38,0.04 -0.72,0.17 -1.08,0.22 0.1,-0.53 0.78,-1.5 -0.62,-1.96 -0.79,-0.26 -1.74,0.32 -2.33,0.6 -2.12,1.02 -2.81,3.28 -2.36,3.38 0.01,0.01 0.03,0.02 0.03,0.04l0.11 0.1c0.42,0.34 1.16,0.64 1.66,0.79 0.65,0.19 1.73,0.31 2.43,0.38 3,0.28 1.16,-2.8 1.09,-3.14 0.86,0.12 1.3,-0.05 1.81,0.56 -0.08,0.35 -0.53,1.2 -0.71,1.6 -0.74,1.61 -1.24,3.24 -1.73,4.96 -0.92,0.11 -1.11,0.44 -1.77,0.69 0.01,-1.08 0.1,-1.68 -1.14,-1.71 -0.55,-0.01 -0.8,0.17 -1.11,0.41 -1.43,1.08 -2.52,2.24 -2.53,4.15 -0,0.62 0.11,0.48 0.22,0.54 0.63,0.38 1.79,0.44 2.67,0.35 0.47,-0.05 0.97,-0.11 1.43,-0.2l0.98 -0.22c0.38,-0.08 0.14,-0.15 0.26,0.06 -0.08,0.78 -0.66,2.6 -0.56,3.29 -0.13,0.14 -0.07,0.08 -0.17,0.29 -0.06,0.13 -0.08,0.18 -0.12,0.33 -0.07,0.3 -0.02,0.6 -0.03,0.92 -0.09,0.94 -0.17,0.52 -0.78,0.94 -0.32,0.22 -0.57,0.55 -0.86,0.82 -0.29,-0.69 -0.22,-1.44 -1.39,-1.13 -0.93,0.25 -1.93,2.19 -2.03,3.16 -0.06,0.56 0.02,1.84 0.39,2.08 2,0.02 2.64,-0.6 4.08,-1.25l-0.01 0.28c-0.06,0.58 -0.22,2.09 -0.14,2.62 -0.44,0.37 -0.46,1.03 -0.12,1.49 -0.08,3.97 0.16,2.73 -0.77,3.57 -0.24,0.21 -0.37,0.4 -0.62,0.62 -0.36,-0.53 -0.09,-1.43 -1.37,-1.13 -0.98,0.23 -1.92,2.22 -2.06,3.14 -0.07,0.47 -0.07,1.79 0.41,2.09 0.86,0.04 1.94,-0.12 2.51,-0.52l0.16 -0.08c0.6,-0.17 1.39,-0.67 1.84,-0.94 0.12,0.18 0.04,0.07 0.14,0.1 -0.18,0.38 -0.31,0.07 -0.71,0.58 -0.67,0.86 0.33,1.72 0.89,2.31 0.6,0.64 1.71,1.63 2.94,1.88 0.38,-0.11 0.92,-1.2 1.04,-1.69 0.21,-0.86 0.15,-1.53 -0.05,-2.41 -0.22,-0.94 -0.24,-1.38 -1.01,-1.81 -0.93,-0.52 -1.19,0.28 -1.59,0.76 -0.21,-0.33 -0.33,-0.79 -0.58,-1.12 -0.48,-0.62 -0.48,-0.13 -0.5,-1.22 -0.02,-1.09 0.05,-2.25 0.01,-3.32 0.37,0.22 0.89,0.86 1.37,1.21 0.51,0.37 1.05,0.65 1.76,0.82 0.32,-0.02 0.92,-1.21 1.04,-1.68 0.22,-0.87 0.15,-1.53 -0.04,-2.41 -0.19,-0.86 -0.3,-1.41 -0.96,-1.79 -1.06,-0.6 -1.26,0.38 -1.71,0.74 -0.22,-0.8 -0.65,-1.34 -1.19,-1.71l0.5 -4.35 0.38 0.28c0.23,0.25 0.6,0.67 0.87,0.82 0.07,0.1 0.05,0.1 0.19,0.21 0.18,0.23 0.66,0.57 0.92,0.6 0.1,0.13 -0.01,0.03 0.16,0.16 0.08,0.06 0.1,0.07 0.18,0.11 0.14,0.07 0.26,0.1 0.44,0.15l0.45 0.17c0.35,0.08 0.75,-0.74 0.91,-1.05 0.21,-0.4 0.41,-1.07 0.43,-1.57 -0,-0.28 0.04,-0.67 -0.1,-0.85l0.03 -0.17c-0,-0.04 -0.01,-0.13 -0.01,-0.15 -0.05,-0.13 -0.03,-0.1 -0.09,-0.17 0.06,-0.51 -0.25,-1.75 -0.94,-2.22 -1.11,-0.74 -1.37,0.09 -1.86,0.69l-0.12 -0.2c-0.28,-0.56 -0.41,-1.06 -1,-1.45 0.04,-1.21 1.29,-5.03 1.31,-5.65 0.07,0.06 0.05,0.04 0.12,0.13 0.63,0.83 0.41,0.6 1.22,1.38 0.76,0.74 1.67,1.73 2.95,1.92 0.28,0.13 0.55,-0.41 0.69,-0.64 0.21,-0.34 0.36,-0.64 0.47,-1.02 0.36,-1.24 0.14,-3.92 -1.03,-4.6 -1.23,-0.72 -1.67,0.89 -1.75,0.72 -0.01,-0.01 -0.03,0.02 -0.04,0.03 -0.19,-0.33 -0.3,-0.68 -0.49,-1 -0.22,-0.38 -0.47,-0.51 -0.68,-0.79 0.39,-1.04 1.05,-2.29 1.59,-3.3 0.57,-1.06 1.2,-2.15 1.7,-3.17 1.43,-0.02 1.51,0.55 1.8,0.6 -0.1,0.19 -0.02,0.07 -0.16,0.2 -0.01,0.01 -0.21,0.13 -0.23,0.15 -0.8,0.47 -1.8,0.96 -1.37,2.09 0.14,0.37 0.42,0.53 0.75,0.73 1.23,0.73 2.46,1.53 4.32,1.53 0.28,-0.08 0.25,-0.15 0.35,-0.44 0.22,-0.63 0.33,-1.22 0.26,-1.93 -0.11,-1.05 -1.06,-3.33 -2.21,-3.65 -1.31,-0.37 -1.17,0.6 -1.56,1.21l-0.2 -0.19c-0.84,-0.96 -0.61,-0.56 -1.27,-1.09 0.16,-0.47 0.7,-1.32 0.98,-1.82 1.05,-1.91 1.94,-3.59 2.84,-5.61 0.73,0.01 1.23,0.31 1.57,0.68 -0.26,0.25 -1.37,0.7 -1.67,1.19 -0.51,0.8 -0.07,1.45 0.63,1.87 1.15,0.7 2.56,1.58 4.34,1.55 0.33,-0.09 0.46,-0.67 0.52,-0.98 0.28,-1.4 -0.01,-2.34 -0.66,-3.5 -0.49,-0.87 -0.67,-1.3 -1.44,-1.54 -1.15,-0.36 -1.27,0.44 -1.56,1.23 -0.65,-0.55 0.03,-0.23 -1.38,-1.25 0.22,-0.6 1.08,-2.59 1.06,-3.14 0.38,-0.35 0.52,-0.78 0.43,-1.4 0.22,-0.75 0.67,-4.16 0.53,-5 0.32,0.09 0.75,0.4 1.06,0.57 0.35,0.2 0.71,0.39 1.06,0.57 0.73,0.38 1.61,0.62 2.65,0.61 0.58,-0.21 0.64,-1.82 0.61,-2.32 -0.04,-0.79 -0.45,-1.64 -0.77,-2.19 -0.39,-0.68 -0.64,-1.3 -1.45,-1.52 -1.33,-0.36 -1.16,0.63 -1.55,1.24 -0.67,-0.66 -0.61,-0.87 -1.64,-1.37 -0.06,-2.55 -0.87,-5.97 -0.9,-6.74l0.15 -0.03 0.01 -0.03zm-14.34 62.71l-0.02 1.23c-0.17,-0.13 -0.38,-0.3 -0.62,-0.45 -0.2,-0.13 -0.4,-0.21 -0.59,-0.39 0.26,-0.28 0.65,-0.51 1.16,-0.55l0.07 0.15zm14.26 -66.46c-0.03,0.28 0.03,0.13 -0.15,0.29 -0.01,0.01 -0.24,0.12 -0.24,0.13 -0.22,0.12 -0.24,0.17 -0.54,0.21 0.01,-0.4 -0.17,-0.77 -0.25,-1.14 0.63,0.03 0.9,0.46 1.18,0.51zm-14.86 55.33c0.15,-0.05 0.34,-0.22 0.51,-0.31 0.29,-0.15 0.4,-0.14 0.78,-0.16 -0.03,0.41 -0.14,0.81 -0.08,1.19 -0.26,0.14 -0.08,0.13 -0.34,-0.03 -0.26,-0.16 -0.76,-0.47 -0.88,-0.69zm2.5 -3.73c0.16,-0.41 0.11,-0.97 0.32,-1.32 0.3,0.08 0.44,0.22 0.64,0.41 0.2,0.19 0.27,0.36 0.41,0.49 -0.16,0.21 0.06,0.08 -0.33,0.21 -0.1,0.03 -0.26,0.05 -0.36,0.08 -0.23,0.05 -0.43,0.12 -0.68,0.14zm0.14 8.74l-1.08 0.27c-0.09,-0.08 -0.07,0.14 -0.08,-0.17l0.07 -1.1c0.51,0.12 0.97,0.57 1.09,1.01zm-0.43 8.78c-0.17,0.02 -0.31,0.07 -0.44,0.1 -0.01,0 -0.23,0.03 -0.24,0.03 -0.22,-0.04 0,0.16 -0.14,-0.1l-0.01 -0.9c0.37,0.15 0.68,0.48 0.83,0.88zm7.48 -41.68c0.31,-0.02 0.51,-0.13 0.93,-0.12 0.35,0 0.54,0.09 0.82,0.17 -0.11,0.53 -0.59,0.91 -0.64,1.43 -0.25,-0.04 -0.12,0.01 -0.27,-0.15l-0.84 -1.31zm4.93 -8.23c-0.27,-0 -0.43,-0.17 -0.68,-0.32 -0.41,-0.23 -0.51,-0.16 -0.64,-0.47 0.15,-0.04 0.4,-0.31 0.62,-0.42 0.29,-0.15 0.49,-0.18 0.85,-0.23 0.05,0.51 -0.12,0.95 -0.14,1.43zm-12.94 26.21c0.63,-0.04 0.61,-0.21 1.47,-0.11l-0.33 1.55c-0.33,-0.14 -0.22,-0.21 -0.62,-0.71 -0.32,-0.39 -0.42,-0.39 -0.52,-0.74zm15.47 -33.38c-0.15,0.29 -0.36,0.33 -0.67,0.51 -0.26,0.15 -0.4,0.29 -0.69,0.42 -0.01,-0.23 0.02,-0.53 -0.08,-0.67l0.03 -0.86c0.33,0.01 0.6,0.1 0.83,0.21 0.22,0.11 0.42,0.34 0.58,0.38zm-12.41 30.37c0.14,-0.37 0.45,-1.36 0.68,-1.6 0.66,0.19 1.09,0.56 1.31,1.14 -0.34,0.04 -0.75,0.16 -1.08,0.25 -0.9,0.24 -0.77,0.49 -0.91,0.21z"
  ></path>
</g>
</svg>

<svg width="26" height="77" viewBox="0 0 26 77" fill="none" xmlns="http://www.w3.org/2000/svg">
<g id="icon3 1" clip-path="url(#clip0_1_2)">
<g id="Layer_x0020_1">
<path id="Vector" fill-rule="evenodd" clip-rule="evenodd" d="M19.14 6.58C19.23 6.68 19.12 6.61 19.31 6.73C19.35 6.76 19.5 6.82 19.58 6.86L19.74 6.88C19.86 7.02 19.76 6.94 19.96 7.06C20.59 7.43 21.77 7.58 22.47 7.59C22.89 7.33 23.08 6.01 23.02 5.32C22.91 4.15 22 1.9 20.85 1.56C20.01 1.31 19.66 1.58 19.45 2.26C19.42 2.36 19.4 2.45 19.36 2.54L19.18 2.79C19 2.43 18.41 1.82 17.98 1.61C17.34 1.3 17.62 1.35 17.14 0.0200005H16.39C16.59 0.65 16.83 1.29 17 1.94C17.17 2.58 17.47 3.4 17.58 3.99C17.37 4.35 17.15 4.49 17.27 5.09C17.38 5.6 17.62 5.8 18.03 5.99C18.16 6.3 18.39 7.32 18.42 7.77C17.74 8.01 17.04 8.62 16.8 9.2C16.35 8.73 16.51 7.61 15.21 7.98C14.41 8.2 14.12 8.78 13.76 9.5C13.18 10.68 12.8 11.65 13.16 13.08C13.2 13.25 13.29 13.48 13.35 13.63C13.46 13.92 13.44 13.97 13.7 14.07C15.44 14.06 16.66 13.25 17.83 12.52C18.05 12.39 18.48 12.13 18.62 11.9C19.36 10.7 17.88 9.76 16.92 9.47C16.91 8.96 17.99 8.6 18.62 8.65C18.83 10.39 19.18 12.15 19.23 13.98C19.28 16.03 19.24 17.66 19.15 19.69C17.95 20.21 18.16 20.34 17.38 21.15C16.99 20.7 17.16 19.55 15.79 19.97C15 20.21 14.88 20.6 14.37 21.52C13.59 22.93 13.42 24.18 14.01 25.67C14.15 26.02 14.07 26.03 14.37 26.04C15.15 26.04 15.84 25.86 16.46 25.61C16.97 25.41 17.72 24.85 18.15 24.75C17.97 25.05 17.81 25.66 17.67 26L16.13 29.5C14.38 29.58 14.87 29.79 13.86 30.09C13.96 28.94 13.96 28.4 12.76 28.31C12.06 28.26 11.26 28.96 10.85 29.27C9.81 30.09 8.92 31.08 8.91 33.04C9 33.26 8.88 33.13 9.09 33.15C9.33 33.51 10.49 33.64 11.03 33.73L11.22 33.72L11.93 33.71L12.01 33.69L13.75 33.52C14 33.56 13.78 33.45 13.94 33.61L11.32 38.35C11.04 38.86 10.76 39.55 10.46 39.96C10.02 39.94 9.77 39.82 9.28 39.88C8.9 39.92 8.56 40.05 8.2 40.1C8.3 39.57 8.98 38.6 7.58 38.14C6.79 37.88 5.84 38.46 5.25 38.74C3.13 39.76 2.44 42.02 2.89 42.12C2.9 42.13 2.92 42.14 2.92 42.16L3.03 42.26C3.45 42.6 4.19 42.9 4.69 43.05C5.34 43.24 6.42 43.36 7.12 43.43C10.12 43.71 8.28 40.63 8.21 40.29C9.07 40.41 9.51 40.24 10.02 40.85C9.94 41.2 9.49 42.05 9.31 42.45C8.57 44.06 8.07 45.69 7.58 47.41C6.66 47.52 6.47 47.85 5.81 48.1C5.82 47.02 5.91 46.42 4.67 46.39C4.12 46.38 3.87 46.56 3.56 46.8C2.13 47.88 1.04 49.04 1.03 50.95C1.03 51.57 1.14 51.43 1.25 51.49C1.88 51.87 3.04 51.93 3.92 51.84C4.39 51.79 4.89 51.73 5.35 51.64L6.33 51.42C6.71 51.34 6.47 51.27 6.59 51.48C6.51 52.26 5.93 54.08 6.03 54.77C5.9 54.91 5.96 54.85 5.86 55.06C5.8 55.19 5.78 55.24 5.74 55.39C5.67 55.69 5.72 55.99 5.71 56.31C5.62 57.25 5.54 56.83 4.93 57.25C4.61 57.47 4.36 57.8 4.07 58.07C3.78 57.38 3.85 56.63 2.68 56.94C1.75 57.19 0.750001 59.13 0.650001 60.1C0.590001 60.66 0.670001 61.94 1.04 62.18C3.04 62.2 3.68 61.58 5.12 60.93L5.11 61.21C5.05 61.79 4.89 63.3 4.97 63.83C4.53 64.2 4.51 64.86 4.85 65.32C4.77 69.29 5.01 68.05 4.08 68.89C3.84 69.1 3.71 69.29 3.46 69.51C3.1 68.98 3.37 68.08 2.09 68.38C1.11 68.61 0.170001 70.6 0.0300014 71.52C-0.0399986 71.99 -0.0399987 73.31 0.440001 73.61C1.3 73.65 2.38 73.49 2.95 73.09L3.11 73.01C3.71 72.84 4.5 72.34 4.95 72.07C5.07 72.25 4.99 72.14 5.09 72.17C4.91 72.55 4.78 72.24 4.38 72.75C3.71 73.61 4.71 74.47 5.27 75.06C5.87 75.7 6.98 76.69 8.21 76.94C8.59 76.83 9.13 75.74 9.25 75.25C9.46 74.39 9.4 73.72 9.2 72.84C8.98 71.9 8.96 71.46 8.19 71.03C7.26 70.51 7 71.31 6.6 71.79C6.39 71.46 6.27 71 6.02 70.67C5.54 70.05 5.54 70.54 5.52 69.45C5.5 68.36 5.57 67.2 5.53 66.13C5.9 66.35 6.42 66.99 6.9 67.34C7.41 67.71 7.95 67.99 8.66 68.16C8.98 68.14 9.58 66.95 9.7 66.48C9.92 65.61 9.85 64.95 9.66 64.07C9.47 63.21 9.36 62.66 8.7 62.28C7.64 61.68 7.44 62.66 6.99 63.02C6.77 62.22 6.34 61.68 5.8 61.31L6.3 56.96L6.68 57.24C6.91 57.49 7.28 57.91 7.55 58.06C7.62 58.16 7.6 58.16 7.74 58.27C7.92 58.5 8.4 58.84 8.66 58.87C8.76 59 8.65 58.9 8.82 59.03C8.9 59.09 8.92 59.1 9 59.14C9.14 59.21 9.26 59.24 9.44 59.29L9.89 59.46C10.24 59.54 10.64 58.72 10.8 58.41C11.01 58.01 11.21 57.34 11.23 56.84C11.23 56.56 11.27 56.17 11.13 55.99L11.16 55.82C11.16 55.78 11.15 55.69 11.15 55.67C11.1 55.54 11.12 55.57 11.06 55.5C11.12 54.99 10.81 53.75 10.12 53.28C9.01 52.54 8.75 53.37 8.26 53.97L8.14 53.77C7.86 53.21 7.73 52.71 7.14 52.32C7.18 51.11 8.43 47.29 8.45 46.67C8.52 46.73 8.5 46.71 8.57 46.8C9.2 47.63 8.98 47.4 9.79 48.18C10.55 48.92 11.46 49.91 12.74 50.1C13.02 50.23 13.29 49.69 13.43 49.46C13.64 49.12 13.79 48.82 13.9 48.44C14.26 47.2 14.04 44.52 12.87 43.84C11.64 43.12 11.2 44.73 11.12 44.56C11.11 44.55 11.09 44.58 11.08 44.59C10.89 44.26 10.78 43.91 10.59 43.59C10.37 43.21 10.12 43.08 9.91 42.8C10.3 41.76 10.96 40.51 11.5 39.5C12.07 38.44 12.7 37.35 13.2 36.33C14.63 36.31 14.71 36.88 15 36.93C14.9 37.12 14.98 37 14.84 37.13C14.83 37.14 14.63 37.26 14.61 37.28C13.81 37.75 12.81 38.24 13.24 39.37C13.38 39.74 13.66 39.9 13.99 40.1C15.22 40.83 16.45 41.63 18.31 41.63C18.59 41.55 18.56 41.48 18.66 41.19C18.88 40.56 18.99 39.97 18.92 39.26C18.81 38.21 17.86 35.93 16.71 35.61C15.4 35.24 15.54 36.21 15.15 36.82L14.95 36.63C14.11 35.67 14.34 36.07 13.68 35.54C13.84 35.07 14.38 34.22 14.66 33.72C15.71 31.81 16.6 30.13 17.5 28.11C18.23 28.12 18.73 28.42 19.07 28.79C18.81 29.04 17.7 29.49 17.4 29.98C16.89 30.78 17.33 31.43 18.03 31.85C19.18 32.55 20.59 33.43 22.37 33.4C22.7 33.31 22.83 32.73 22.89 32.42C23.17 31.02 22.88 30.08 22.23 28.92C21.74 28.05 21.56 27.62 20.79 27.38C19.64 27.02 19.52 27.82 19.23 28.61C18.58 28.06 19.26 28.38 17.85 27.36C18.07 26.76 18.93 24.77 18.91 24.22C19.29 23.87 19.43 23.44 19.34 22.82C19.56 22.07 20.01 18.66 19.87 17.82C20.19 17.91 20.62 18.22 20.93 18.39C21.28 18.59 21.64 18.78 21.99 18.96C22.72 19.34 23.6 19.58 24.64 19.57C25.22 19.36 25.28 17.75 25.25 17.25C25.21 16.46 24.8 15.61 24.48 15.06C24.09 14.38 23.84 13.76 23.03 13.54C21.7 13.18 21.87 14.17 21.48 14.78C20.81 14.12 20.87 13.91 19.84 13.41C19.78 10.86 18.97 7.44 18.94 6.67L19.09 6.64L19.1 6.61L19.14 6.58ZM4.8 69.29L4.78 70.52C4.61 70.39 4.4 70.22 4.16 70.07C3.96 69.94 3.76 69.86 3.57 69.68C3.83 69.4 4.22 69.17 4.73 69.13L4.8 69.28V69.29ZM19.06 2.83C19.03 3.11 19.09 2.96 18.91 3.12C18.9 3.13 18.67 3.24 18.67 3.25C18.45 3.37 18.43 3.42 18.13 3.46C18.14 3.06 17.96 2.69 17.88 2.32C18.51 2.35 18.78 2.78 19.06 2.83ZM4.2 58.16C4.35 58.11 4.54 57.94 4.71 57.85C5 57.7 5.11 57.71 5.49 57.69C5.46 58.1 5.35 58.5 5.41 58.88C5.15 59.02 5.33 59.01 5.07 58.85C4.81 58.69 4.31 58.38 4.19 58.16H4.2ZM6.7 54.43C6.86 54.02 6.81 53.46 7.02 53.11C7.32 53.19 7.46 53.33 7.66 53.52C7.86 53.71 7.93 53.88 8.07 54.01C7.91 54.22 8.13 54.09 7.74 54.22C7.64 54.25 7.48 54.27 7.38 54.3C7.15 54.35 6.95 54.42 6.7 54.44V54.43ZM6.84 63.17L5.76 63.44C5.67 63.36 5.69 63.58 5.68 63.27L5.75 62.17C6.26 62.29 6.72 62.74 6.84 63.18V63.17ZM6.41 71.95C6.24 71.97 6.1 72.02 5.97 72.05C5.96 72.05 5.74 72.08 5.73 72.08C5.51 72.04 5.73 72.24 5.59 71.98L5.58 71.08C5.95 71.23 6.26 71.56 6.41 71.96V71.95ZM13.89 30.27C14.2 30.25 14.4 30.14 14.82 30.15C15.17 30.15 15.36 30.24 15.64 30.32C15.53 30.85 15.05 31.23 15 31.75C14.75 31.71 14.88 31.76 14.73 31.6L13.89 30.29V30.27ZM18.82 22.04C18.55 22.04 18.39 21.87 18.14 21.72C17.73 21.49 17.63 21.56 17.5 21.25C17.65 21.21 17.9 20.94 18.12 20.83C18.41 20.68 18.61 20.65 18.97 20.6C19.02 21.11 18.85 21.55 18.83 22.03L18.82 22.04ZM5.88 48.25C6.51 48.21 6.49 48.04 7.35 48.14L7.02 49.69C6.69 49.55 6.8 49.48 6.4 48.98C6.08 48.59 5.98 48.59 5.88 48.24V48.25ZM21.35 14.87C21.2 15.16 20.99 15.2 20.68 15.38C20.42 15.53 20.28 15.67 19.99 15.8C19.98 15.57 20.01 15.27 19.91 15.13L19.94 14.27C20.27 14.28 20.54 14.37 20.77 14.48C20.99 14.59 21.19 14.82 21.35 14.86V14.87ZM8.94 45.24C9.08 44.87 9.39 43.88 9.62 43.64C10.28 43.83 10.71 44.2 10.93 44.78C10.59 44.82 10.18 44.94 9.85 45.03C8.95 45.27 9.08 45.52 8.94 45.24Z" fill="#4EDF54"/>
</g>
</g>
<defs>
<clipPath id="clip0_1_2">
<rect width="25.29" height="76.92" fill="white"/>
</clipPath>
</defs>
</svg>
